X: 2585
T: Ballyoran, The
R: hornpipe
M: 4/4
K: Gmajor
|:Bc|"G"dBcA "D" BGAF|"G" G2 GF GABc|"G"dg g2 bgdB|"D" cABG A2 Bc|
"G"dBcA BG (3AGF|"G"G2GF GABc|"D7"dgg2fgag|"G"g2gfg2:|
|:Bc|"G"dgg2bgg2|"G"dgfg edBG|"D7"FGAB cBce|"D7"agfe d2Bc|
"G"dgg2bgg2|"G"dg(3gfg edBG|"D7"FGAB cADF|"G"AGGFG2:|
|:dc|"G" BDGB dgfg|"C" ec c2 Gceg|"D7" fdd2 fgaf|"G"dgg2bgdc|
"G" BDGB dgfg|"C" ec c2 Gceg|"D7" fdd2 fg (3agf|"G" g2 "D7" gf "G" g2:|

